places/24/folder-videos.svg

<?xml version="1.0" encoding="UTF-8" standalone="no"?>
<svg
   xmlns:dc="http://purl.org/dc/elements/1.1/"
   xmlns:cc="http://creativecommons.org/ns#"
   xmlns:rdf="http://www.w3.org/1999/02/22-rdf-syntax-ns#"
   xmlns:svg="http://www.w3.org/2000/svg"
   xmlns="http://www.w3.org/2000/svg"
   xmlns:xlink="http://www.w3.org/1999/xlink"
   version="1.1"
   width="24"
   height="24"
   id="svg12981">
  <defs
     id="defs12983">
    <linearGradient
       x1="23.99999"
       y1="4.999989"
       x2="23.99999"
       y2="43"
       id="linearGradient7191-5"
       xlink:href="#linearGradient3924-4-8-1"
       gradientUnits="userSpaceOnUse"
       gradientTransform="matrix(0.45945947,0,0,0.48648663,0.97297102,0.8244)" />
    <linearGradient
       id="linearGradient3924-4-8-1">
      <stop
         id="stop3926-0-4-7"
         style="stop-color:#ffffff;stop-opacity:1"
         offset="0" />
      <stop
         id="stop3928-6-8-1"
         style="stop-color:#ffffff;stop-opacity:0.23529412"
         offset="0.06316455" />
      <stop
         id="stop3930-2-1-0"
         style="stop-color:#ffffff;stop-opacity:0.15686275"
         offset="0.95056331" />
      <stop
         id="stop3932-9-0-5"
         style="stop-color:#ffffff;stop-opacity:0.39215687"
         offset="1" />
    </linearGradient>
    <linearGradient
       x1="12.872127"
       y1="5.0561161"
       x2="12.872127"
       y2="21.450024"
       id="linearGradient7196-0"
       xlink:href="#linearGradient2867-449-88-871-390-598-476-591-434-148-57-177-3-8"
       gradientUnits="userSpaceOnUse"
       gradientTransform="matrix(1.0494033,0,0,0.94322337,-0.92804893,1.60115)" />
    <linearGradient
       id="linearGradient4632-0-6-4-6-7-0">
      <stop
         id="stop4634-4-4-7-1-8-4"
         style="stop-color:#b4cee1;stop-opacity:1"
         offset="0" />
      <stop
         id="stop4636-3-1-5-7-5-2"
         style="stop-color:#5d9fcd;stop-opacity:1"
         offset="1" />
    </linearGradient>
    <linearGradient
       x1="5.6597543"
       y1="18.299864"
       x2="5.6597543"
       y2="1"
       id="linearGradient7198-6"
       xlink:href="#linearGradient3707-319-631-407-324-616-674-812-821-107-178-392-400-8"
       gradientUnits="userSpaceOnUse"
       gradientTransform="matrix(1.33535,0,0,1.210977,-0.78560893,0.94489)" />
    <linearGradient
       id="linearGradient3707-319-631-407-324-616-674-812-821-107-178-392-400-8">
      <stop
         id="stop5440-7"
         style="stop-color:#272727;stop-opacity:1"
         offset="0" />
      <stop
         id="stop5442-1"
         style="stop-color:#454545;stop-opacity:1"
         offset="1" />
    </linearGradient>
    <radialGradient
       cx="7.4956832"
       cy="8.4497671"
       r="19.99999"
       fx="7.4956832"
       fy="8.4497671"
       id="radialGradient6814"
       xlink:href="#linearGradient2867-449-88-871-390-598-476-591-434-148-57-177-641-289-620-227-114-444-680-744-0"
       gradientUnits="userSpaceOnUse"
       gradientTransform="matrix(0,1.1984564,-1.2044327,-2.2080141e-8,22.17722,-6.18454)" />
    <linearGradient
       id="linearGradient2867-449-88-871-390-598-476-591-434-148-57-177-641-289-620-227-114-444-680-744-0">
      <stop
         id="stop5430-8"
         style="stop-color:#5f5f5f;stop-opacity:1"
         offset="0" />
      <stop
         id="stop5432-7"
         style="stop-color:#4f4f4f;stop-opacity:1"
         offset="0.26238" />
      <stop
         id="stop5434-3"
         style="stop-color:#3b3b3b;stop-opacity:1"
         offset="0.704952" />
      <stop
         id="stop5436-5"
         style="stop-color:#2b2b2b;stop-opacity:1"
         offset="1" />
    </linearGradient>
    <linearGradient
       x1="24"
       y1="44"
       x2="24"
       y2="3.8990016"
       id="linearGradient6816"
       xlink:href="#linearGradient3707-319-631-407-324-616-674-812-821-107-178-392-400-8"
       gradientUnits="userSpaceOnUse"
       gradientTransform="matrix(0.48717946,0,0,0.5128205,0.30769102,0.19229)" />
    <radialGradient
       cx="605.71429"
       cy="486.64789"
       r="117.14286"
       fx="605.71429"
       fy="486.64789"
       id="radialGradient4965-9"
       xlink:href="#linearGradient5060-2-47"
       gradientUnits="userSpaceOnUse"
       gradientTransform="matrix(0.01204859,0,0,0.0082353,13.23882,18.98055)" />
    <linearGradient
       id="linearGradient5060-2-47">
      <stop
         id="stop5062-2-8"
         style="stop-color:#000000;stop-opacity:1"
         offset="0" />
      <stop
         id="stop5064-2-5"
         style="stop-color:#000000;stop-opacity:0"
         offset="1" />
    </linearGradient>
    <radialGradient
       cx="605.71429"
       cy="486.64789"
       r="117.14286"
       fx="605.71429"
       fy="486.64789"
       id="radialGradient4968-3"
       xlink:href="#linearGradient5060-2-47"
       gradientUnits="userSpaceOnUse"
       gradientTransform="matrix(-0.01204859,0,0,0.0082353,10.761241,18.98055)" />
    <linearGradient
       id="linearGradient5048-2-2">
      <stop
         id="stop5050-3-3"
         style="stop-color:#000000;stop-opacity:0"
         offset="0" />
      <stop
         id="stop5056-5-7"
         style="stop-color:#000000;stop-opacity:1"
         offset="0.5" />
      <stop
         id="stop5052-02-4"
         style="stop-color:#000000;stop-opacity:0"
         offset="1" />
    </linearGradient>
    <linearGradient
       x1="302.85715"
       y1="366.64789"
       x2="302.85715"
       y2="609.50507"
       id="linearGradient12979"
       xlink:href="#linearGradient5048-2-2"
       gradientUnits="userSpaceOnUse"
       gradientTransform="matrix(0.0352071,0,0,0.0082353,-0.72481893,18.98054)" />
    <linearGradient
       x1="23.99999"
       y1="4.999989"
       x2="23.99999"
       y2="43"
       id="linearGradient7191"
       xlink:href="#linearGradient3924-4-8-1"
       gradientUnits="userSpaceOnUse"
       gradientTransform="matrix(0.2972973,0,0,0.32432436,-16.084292,7.3687524)" />
    <linearGradient
       x1="13.695916"
       y1="4.0372777"
       x2="13.695916"
       y2="22.914099"
       id="linearGradient7196"
       xlink:href="#linearGradient4256"
       gradientUnits="userSpaceOnUse"
       gradientTransform="matrix(0.7265099,0,0,0.66025637,-17.899371,7.5233624)" />
    <linearGradient
       id="linearGradient4256">
      <stop
         offset="0"
         style="stop-color:#90dbec;stop-opacity:1"
         id="stop4258" />
      <stop
         offset="0.55192536"
         style="stop-color:#39bbef;stop-opacity:1"
         id="stop4260" />
      <stop
         offset="1"
         style="stop-color:#1d7be6;stop-opacity:1"
         id="stop4262" />
    </linearGradient>
    <linearGradient
       x1="23.99999"
       y1="4.999989"
       x2="23.99999"
       y2="43"
       id="linearGradient7191-1"
       xlink:href="#linearGradient3924-4-8-1"
       gradientUnits="userSpaceOnUse"
       gradientTransform="matrix(0.2972973,0,0,0.32432436,24.951567,3.5661925)" />
    <linearGradient
       id="linearGradient2867-449-88-871-390-598-476-591-434-148-57-177-3-8">
      <stop
         id="stop3750-8-9"
         style="stop-color:#90dbec;stop-opacity:1"
         offset="0" />
      <stop
         id="stop3752-3-2"
         style="stop-color:#55c1ec;stop-opacity:1"
         offset="0.26238" />
      <stop
         id="stop3754-7-2"
         style="stop-color:#3689e6;stop-opacity:1"
         offset="0.704952" />
      <stop
         id="stop3756-9-3"
         style="stop-color:#2b63a0;stop-opacity:1"
         offset="1" />
    </linearGradient>
    <radialGradient
       xlink:href="#linearGradient4632-0-6-4-6-7-0"
       id="radialGradient4223"
       cx="12"
       cy="5.6749892"
       fx="12"
       fy="5.6749892"
       r="6.5"
       gradientTransform="matrix(-3.5384615,-3.1508111e-8,2.7398359e-8,-3.0769232,54.461538,19.461506)"
       gradientUnits="userSpaceOnUse" />
    <linearGradient
       x1="84.30883"
       y1="20.724089"
       x2="84.30883"
       y2="42.923553"
       id="linearGradient10262-3-8"
       xlink:href="#linearGradient4632-0-6-4-6-7-0"
       gradientUnits="userSpaceOnUse"
       gradientTransform="matrix(0.33333327,0,0,0.34148555,-82.109535,-29.080757)" />
    <linearGradient
       x1="124.44785"
       y1="45.466164"
       x2="124.44785"
       y2="21.175106"
       id="linearGradient10264-3-5"
       xlink:href="#linearGradient4640-4-4-9-4-9"
       gradientUnits="userSpaceOnUse"
       gradientTransform="matrix(0.3332073,0,0,0.34194813,-100.02437,-29.136057)" />
    <linearGradient
       id="linearGradient4640-4-4-9-4-9">
      <stop
         id="stop4642-36-1-8-1-0"
         style="stop-color:#567991;stop-opacity:1"
         offset="0" />
      <stop
         id="stop4644-9-1-3-1-9"
         style="stop-color:#7a9ab1;stop-opacity:1"
         offset="1" />
    </linearGradient>
  </defs>
  <metadata
     id="metadata12986">
    <rdf:RDF>
      <cc:Work
         rdf:about="">
        <dc:format>image/svg+xml</dc:format>
        <dc:type
           rdf:resource="http://purl.org/dc/dcmitype/StillImage" />
        <dc:title />
      </cc:Work>
    </rdf:RDF>
  </metadata>
  <rect
     style="display:inline;fill:url(#radialGradient4223);fill-opacity:1;stroke:none;stroke-width:0.99999994;stroke-linecap:butt;stroke-linejoin:miter;stroke-miterlimit:4;stroke-dasharray:none;stroke-dashoffset:0;stroke-opacity:0.83137256"
     id="rect3457-8"
     y="2.4999695"
     x="5.5000305"
     ry="0"
     rx="0"
     height="20"
     width="13" />
  <rect
     style="display:inline;overflow:visible;visibility:visible;opacity:0.15;fill:url(#linearGradient12979);fill-opacity:1;fill-rule:nonzero;stroke:none;stroke-width:1;marker:none"
     id="rect2879-7"
     y="22"
     x="3.5000305"
     height="2"
     width="16.999998" />
  <path
     style="display:inline;overflow:visible;visibility:visible;opacity:0.15;fill:url(#radialGradient4968-3);fill-opacity:1;fill-rule:nonzero;stroke:none;stroke-width:1;marker:none"
     id="path2881-0"
     d="m 3.5000311,22.00008 c 0,0 0,1.99989 0,1.99989 -0.62047,0.004 -1.5,-0.44808 -1.5,-1.00008 0,-0.552 0.6924,-0.99981 1.5,-0.99981 z" />
  <path
     style="display:inline;overflow:visible;visibility:visible;opacity:0.15;fill:url(#radialGradient4965-9);fill-opacity:1;fill-rule:nonzero;stroke:none;stroke-width:1;marker:none"
     id="path2883-3"
     d="m 20.50003,22.00008 c 0,0 0,1.99989 0,1.99989 0.62047,0.004 1.5,-0.44808 1.5,-1.00008 0,-0.552 -0.6924,-0.99981 -1.5,-0.99981 z" />
  <path
     style="color:#000000;font-style:normal;font-variant:normal;font-weight:normal;font-stretch:normal;font-size:medium;line-height:normal;font-family:sans-serif;text-indent:0;text-align:start;text-decoration:none;text-decoration-line:none;text-decoration-style:solid;text-decoration-color:#000000;letter-spacing:normal;word-spacing:normal;text-transform:none;direction:ltr;block-progression:tb;writing-mode:lr-tb;baseline-shift:baseline;text-anchor:start;white-space:normal;clip-rule:nonzero;display:inline;overflow:visible;visibility:visible;opacity:0.7;isolation:auto;mix-blend-mode:normal;color-interpolation:sRGB;color-interpolation-filters:linearRGB;solid-color:#000000;solid-opacity:1;fill:#000000;fill-opacity:1;fill-rule:nonzero;stroke:none;stroke-width:0.99999994;stroke-linecap:round;stroke-linejoin:round;stroke-miterlimit:4;stroke-dasharray:none;stroke-dashoffset:0;stroke-opacity:1;marker:none;color-rendering:auto;image-rendering:auto;shape-rendering:auto;text-rendering:auto;enable-background:accumulate"
     d="M 2.5 2 C 2.2238691 2.0000276 2.0000276 2.2238691 2 2.5 L 2 22.5 C 2.0000276 22.776131 2.2238691 22.999972 2.5 23 L 5 23 L 19 23 L 21.5 23 C 21.776131 22.999972 21.999972 22.776131 22 22.5 L 22 2.5 C 21.999972 2.2238691 21.776131 2.0000276 21.5 2 L 19 2 L 5 2 L 2.5 2 z M 3 3 L 5 3 L 5 4 L 3 4 L 3 3 z M 6 3 L 18 3 L 18 22 L 6 22 L 6 3 z M 19 3 L 21 3 L 21 4 L 19 4 L 19 3 z M 3 6 L 5 6 L 5 7 L 3 7 L 3 6 z M 19 6 L 21 6 L 21 7 L 19 7 L 19 6 z M 3 9 L 5 9 L 5 10 L 3 10 L 3 9 z M 19 9 L 21 9 L 21 10 L 19 10 L 19 9 z M 3 12 L 5 12 L 5 13 L 3 13 L 3 12 z M 19 12 L 21 12 L 21 13 L 19 13 L 19 12 z M 3 15 L 5 15 L 5 16 L 3 16 L 3 15 z M 19 15 L 21 15 L 21 16 L 19 16 L 19 15 z M 3 18 L 5 18 L 5 19 L 3 19 L 3 18 z M 19 18 L 21 18 L 21 19 L 19 19 L 19 18 z M 3 21 L 5 21 L 5 22 L 3 22 L 3 21 z M 19 21 L 21 21 L 21 22 L 19 22 L 19 21 z "
     id="rect5505-21-2" />
  <path
     style="display:block;overflow:visible;visibility:visible;fill:none;stroke:#000000;stroke-width:0.99999994;stroke-linecap:square;stroke-linejoin:round;stroke-miterlimit:4;stroke-dasharray:none;stroke-dashoffset:0;stroke-opacity:1;marker:none;opacity:0.7"
     id="path4320-2"
     d="m 6.5000311,12.499969 c 3.6664999,0 7.3330189,0 10.9995189,0" />
  <path
     style="display:block;overflow:visible;visibility:visible;opacity:0.36637932;fill:none;stroke:#ffffff;stroke-width:0.99999994;stroke-linecap:square;stroke-linejoin:round;stroke-miterlimit:4;stroke-dasharray:none;stroke-dashoffset:0;stroke-opacity:1;marker:none"
     id="path4820-2"
     d="m 6.5000311,13.5 c 3.6665099,0 7.3330189,0 10.9995189,0" />
  <rect
     style="opacity:0.5;fill:none;stroke:url(#linearGradient7191-5);stroke-width:0.99999982;stroke-linecap:round;stroke-linejoin:miter;stroke-miterlimit:4;stroke-dasharray:none;stroke-dashoffset:0;stroke-opacity:1"
     id="rect6741-0-3-5"
     y="3.500061"
     x="3.5000305"
     height="18.000002"
     width="17" />
  <path
     style="color:#000000;display:inline;overflow:visible;visibility:visible;fill:#e6e6e6;fill-opacity:1;fill-rule:nonzero;stroke:none;stroke-width:1;marker:none;enable-background:accumulate;opacity:0.3"
     id="rect3953-50-6-7"
     d="m 19,21 2,0 0,1 -2,0 z m 0,-3 2,0 0,1 -2,0 z m 0,-3 2,0 0,1 -2,0 z m 0,-3 2,0 0,1 -2,0 z m 0,-3 2,0 0,1 -2,0 z m 0,-3 2,0 0,1 -2,0 z m 0,-3 2,0 0,1 -2,0 z m -16,18 2,0 0,1 -2,0 z m 0,-3 2,0 0,1 -2,0 z m 0,-3 2,0 0,1 -2,0 z m 0,-3 2,0 0,1 -2,0 z M 3,9 5,9 5,10 3,10 Z M 3,6 5,6 5,7 3,7 Z M 3,3 5,3 5,4 3,4 Z" />
</svg>

<svg xmlns="http://www.w3.org/2000/svg" xmlns:xlink="http://www.w3.org/1999/xlink" viewBox="0 0 24 24"><defs><linearGradient x1="24" y1="5" x2="24" y2="43" id="i" xlink:href="#a" gradientUnits="userSpaceOnUse" gradientTransform="matrix(.45946 0 0 .4865 .973 .824)"/><linearGradient id="a"><stop offset="0" stop-color="#fff"/><stop offset=".063" stop-color="#fff" stop-opacity=".235"/><stop offset=".951" stop-color="#fff" stop-opacity=".157"/><stop offset="1" stop-color="#fff" stop-opacity=".392"/></linearGradient><linearGradient id="d"><stop offset="0" stop-color="#b4cee1"/><stop offset="1" stop-color="#5d9fcd"/></linearGradient><radialGradient cx="605.714" cy="486.648" r="117.143" fx="605.714" fy="486.648" id="h" xlink:href="#b" gradientUnits="userSpaceOnUse" gradientTransform="matrix(.01205 0 0 .00824 13.24 18.98)"/><linearGradient id="b"><stop offset="0"/><stop offset="1" stop-opacity="0"/></linearGradient><radialGradient cx="605.714" cy="486.648" r="117.143" fx="605.714" fy="486.648" id="g" xlink:href="#b" gradientUnits="userSpaceOnUse" gradientTransform="matrix(-.01205 0 0 .00824 10.76 18.98)"/><linearGradient id="c"><stop offset="0" stop-opacity="0"/><stop offset=".5"/><stop offset="1" stop-opacity="0"/></linearGradient><linearGradient x1="302.857" y1="366.648" x2="302.857" y2="609.505" id="f" xlink:href="#c" gradientUnits="userSpaceOnUse" gradientTransform="matrix(.0352 0 0 .00824 -.725 18.98)"/><radialGradient xlink:href="#d" id="e" cx="12" cy="5.675" fx="12" fy="5.675" r="6.5" gradientTransform="matrix(-3.53846 0 0 -3.07692 54.462 19.462)" gradientUnits="userSpaceOnUse"/></defs><rect y="2.5" x="5.5" ry="0" rx="0" height="20" width="13" fill="url(#e)"/><path overflow="visible" opacity=".15" fill="url(#f)" d="M3.5 22h17v2h-17z"/><path d="M3.5 22v2c-.62.004-1.5-.448-1.5-1s.692-1 1.5-1z" overflow="visible" opacity=".15" fill="url(#g)"/><path d="M20.5 22v2c.62.004 1.5-.448 1.5-1s-.692-1-1.5-1z" overflow="visible" opacity=".15" fill="url(#h)"/><path style="line-height:normal;text-indent:0;text-align:start;text-decoration-line:none;text-decoration-style:solid;text-decoration-color:#000;text-transform:none;block-progression:tb;isolation:auto;mix-blend-mode:normal" d="M2.5 2a.5.5 0 0 0-.5.5v20a.5.5 0 0 0 .5.5h19a.5.5 0 0 0 .5-.5v-20a.5.5 0 0 0-.5-.5h-19zM3 3h2v1H3V3zm3 0h12v19H6V3zm13 0h2v1h-2V3zM3 6h2v1H3V6zm16 0h2v1h-2V6zM3 9h2v1H3V9zm16 0h2v1h-2V9zM3 12h2v1H3v-1zm16 0h2v1h-2v-1zM3 15h2v1H3v-1zm16 0h2v1h-2v-1zM3 18h2v1H3v-1zm16 0h2v1h-2v-1zM3 21h2v1H3v-1zm16 0h2v1h-2v-1z" color="#000" font-weight="400" font-family="sans-serif" white-space="normal" overflow="visible" opacity=".7"/><path d="M6.5 12.5h11" display="block" overflow="visible" fill="none" stroke="#000" stroke-linecap="square" stroke-linejoin="round" opacity=".7"/><path d="M6.5 13.5h11" display="block" overflow="visible" opacity=".366" fill="none" stroke="#fff" stroke-linecap="square" stroke-linejoin="round"/><path opacity=".5" fill="none" stroke="url(#i)" stroke-linecap="round" d="M3.5 3.5h17v18h-17z"/><path d="M19 21h2v1h-2zm0-3h2v1h-2zm0-3h2v1h-2zm0-3h2v1h-2zm0-3h2v1h-2zm0-3h2v1h-2zm0-3h2v1h-2zM3 21h2v1H3zm0-3h2v1H3zm0-3h2v1H3zm0-3h2v1H3zm0-3h2v1H3zm0-3h2v1H3zm0-3h2v1H3z" color="#000" overflow="visible" fill="#e6e6e6" opacity=".3"/></svg>
